Hatter-kde/actions/24/gnumeric-object-button.svg

<svg xmlns="http://www.w3.org/2000/svg" viewBox="0 0 24 24">
  <defs id="defs3051">
    <style type="text/css" id="current-color-scheme">
      .ColorScheme-Text {
        color:#363636;
      }
      </style>
  </defs>
 <path 
     style="fill:#b3b3b3" 
     d="M 18.96875 8.03125 C 18.981591 8.1033604 19 8.1740888 19 8.25 L 19 15.75 C 19 16.442524 18.442524 17 17.75 17 L 5.25 17 C 5.1740888 17 5.1033604 16.981591 5.03125 16.96875 C 5.1355573 17.554489 5.6333877 18 6.25 18 L 18.75 18 C 19.442524 18 20 17.442524 20 16.75 L 20 9.25 C 20 8.6333877 19.554489 8.1355573 18.96875 8.03125 z "
     />
 <path style="fill:currentColor;fill-opacity:1;stroke:none" 
     d="M 5.25 7 C 4.5574765 7 4 7.5574765 4 8.25 L 4 15.75 C 4 16.442524 4.5574765 17 5.25 17 L 17.75 17 C 18.442524 17 19 16.442524 19 15.75 L 19 8.25 C 19 7.5574765 18.442524 7 17.75 7 L 5.25 7 z M 15 9 L 16 9 L 16 13 L 15 13 L 10 13 L 10 15 L 7 12.5 L 10 10 L 10 12 L 13 12 L 14 12 L 15 12 L 15 9 z "
     class="ColorScheme-Text"
     />
</svg>

<?xml version="1.0" encoding="UTF-8"?>
<svg viewBox="0 0 24 24" xmlns="http://www.w3.org/2000/svg">
 <defs id="defs3051">
  <style id="current-color-scheme" type="text/css">.ColorScheme-Text {
        color:#363636;
      }</style>
 </defs>
 <path d="m18.969 8.0312c0.012841 0.07211 0.03125 0.14284 0.03125 0.21875v7.5c0 0.69252-0.55748 1.25-1.25 1.25h-12.5c-0.075911 0-0.14664-0.018409-0.21875-0.03125 0.10431 0.58574 0.60214 1.0312 1.2188 1.0312h12.5c0.69252 0 1.25-0.55748 1.25-1.25v-7.5c0-0.61661-0.44551-1.1144-1.0312-1.2188z" fill="#b3b3b3"/>
 <path class="ColorScheme-Text" d="m5.25 7c-0.69252 0-1.25 0.55748-1.25 1.25v7.5c0 0.69252 0.55748 1.25 1.25 1.25h12.5c0.69252 0 1.25-0.55748 1.25-1.25v-7.5c0-0.69252-0.55748-1.25-1.25-1.25h-12.5zm9.75 2h1v4h-1-5v2l-3-2.5 3-2.5v2h3 1 1v-3z" fill="currentColor"/>
</svg>
